X:415
T:Beaux's Delight,The. (p).1701.PLFD.415
M:6/4
L:1/4
Q:3/4=110
S:Playford, Dancing Master,11th Ed.,1701.
O:England
Z:Chris Partington.
K:C
E>FGC2c|B>cdG2c/B/|c>deA>fe|d3G3|
E>FGC2c|B>cdG2g/f/|e>fgG>cB|c3C3:|
|:GEGAFA|GEGAFA|GEGABc|B3G2e|
dBdece|gegafa|gegdef|e3c3:|
